;FLAVOR:Marlin
;TIME:3914
;Filament used: 3.02754m
;Layer height: 0.15
;MINX:107.218
;MINY:32.227
;MINZ:0.2
;MAXX:166.782
;MAXY:141.772
;MAXZ:26.6
;Generated with Cura_SteamEngine master
M82 ;absolute extrusion mode
G21 ; set units to millimeters
G90 ; use absolute positioning
M82 ; absolute extrusion mode
M104 S200 ; set extruder temp
M140 S60 ; set bed temp
M190 S60 ; wait for bed temp
M109 S200 ; wait for extruder temp
G28 W ; home all without mesh bed level
G80 ; mesh bed leveling
G92 E0.0 ; reset extruder distance position
G1 Y-3.0 F1000.0 ; go outside print area
G1 X60.0 E9.0 F1000.0 ; intro line
G1 X100.0 E21.5 F1000.0 ; intro line
G92 E0.0 ; reset extruder distance position
G92 E0
G92 E0
G1 F2100 E-0.8
;LAYER_COUNT:177
;LAYER:0
M107
G0 F3600 X128.996 Y34.846 Z0.2
;TYPE:SKIRT
G1 F2100 E0
G1 F1800 X129.198 Y34.383 E0.0168
G1 X129.471 Y33.957 E0.03363
G1 X129.807 Y33.579 E0.05045
G1 X130.199 Y33.259 E0.06728
G1 X130.636 Y33.005 E0.08409
G1 X131.107 Y32.823 E0.10089
G1 X131.487 Y32.735 E0.11386
G1 X132.348 Y32.589 E0.14291
G1 X132.502 Y32.566 E0.14809
G1 X133.55 Y32.422 E0.18327
G1 X134.105 Y32.363 E0.20183
G1 X135.095 Y32.286 E0.23486
G1 X135.881 Y32.238 E0.26105
G1 X136.4 Y32.227 E0.27832
G1 X137.352 Y32.227 E0.30998
G1 X137.923 Y32.237 E0.32898
G1 X138.816 Y32.28 E0.35871
G1 X138.909 Y32.286 E0.36181
G1 X139.639 Y32.342 E0.38616
G1 X140.251 Y32.398 E0.4066
G1 X141.014 Y32.491 E0.43217
G1 X141.831 Y32.616 E0.45966
G1 X142.508 Y32.73 E0.48249
G1 X142.999 Y32.853 E0.49933
G1 X143.464 Y33.052 E0.51615
G1 X143.891 Y33.322 E0.53295
G1 X144.271 Y33.655 E0.54976
G1 X144.594 Y34.044 E0.56657
G1 X144.851 Y34.48 E0.58341
G1 X145.037 Y34.95 E0.60022
G1 X145.146 Y35.443 E0.61701
G1 X145.177 Y35.834 E0.63006
G1 X145.19 Y36.627 E0.65644
G1 X145.19 Y41.263 E0.81063
G1 X145.23 Y44.061 E0.9037
G1 X145.345 Y46.778 E0.99415
G1 X145.54 Y49.524 E1.08571
G1 X145.808 Y52.228 E1.17609
G1 X146.156 Y54.952 E1.26743
G1 X146.581 Y57.652 E1.35833
G1 X147.084 Y60.361 E1.44998
G1 X147.659 Y63.034 E1.54091
G1 X148.318 Y65.713 E1.63267
G1 X149.029 Y68.298 E1.72184
G1 X149.841 Y70.951 E1.81412
G1 X150.716 Y73.546 E1.90521
G1 X151.652 Y76.083 E1.99515
G1 X152.686 Y78.659 E2.08747
G1 X153.771 Y81.153 E2.17793
G1 X154.937 Y83.637 E2.2692
G1 X156.163 Y86.074 E2.35993
G1 X157.457 Y88.471 E2.45053
G1 X158.852 Y90.889 E2.54338
G1 X160.265 Y93.185 E2.63305
G1 X161.257 Y94.699 E2.69325
G1 X161.307 Y94.79 E2.69671
G1 X162.166 Y96.095 E2.74867
G1 X162.559 Y96.712 E2.773
G1 X162.867 Y97.253 E2.7937
G1 X163.466 Y98.367 E2.83577
G1 X163.789 Y98.988 E2.85905
G1 X164.053 Y99.556 E2.87989
G1 X164.587 Y100.81 E2.92522
G1 X164.865 Y101.489 E2.94962
G1 X165.121 Y102.215 E2.97523
G1 X165.473 Y103.303 E3.01326
G1 X165.683 Y103.982 E3.0369
G1 X165.853 Y104.635 E3.05934
G1 X166.141 Y105.905 E3.10266
G1 X166.275 Y106.531 E3.12395
G1 X166.309 Y106.718 E3.13027
G1 X166.449 Y107.638 E3.16122
G1 X166.568 Y108.519 E3.19079
G1 X166.647 Y109.169 E3.21257
G1 X166.664 Y109.359 E3.21891
G1 X166.723 Y110.325 E3.2511
G1 X166.759 Y111.147 E3.27847
G1 X166.781 Y111.843 E3.30163
G1 X166.782 Y112.035 E3.30801
G1 X166.754 Y113.005 E3.34029
G1 X166.716 Y113.828 E3.36769
G1 X166.675 Y114.524 E3.39088
G1 X166.659 Y114.713 E3.39719
G1 X166.551 Y115.616 E3.42744
G1 X166.428 Y116.52 E3.45778
G1 X166.314 Y117.273 E3.48311
G1 X166.206 Y117.832 E3.50205
G1 X165.907 Y119.137 E3.54658
G1 X165.747 Y119.788 E3.56887
G1 X165.698 Y119.962 E3.57489
G1 X165.429 Y120.84 E3.60543
G1 X165.15 Y121.696 E3.63537
G1 X164.894 Y122.445 E3.6617
G1 X164.665 Y123.021 E3.68232
G1 X164.161 Y124.198 E3.7249
G1 X163.892 Y124.802 E3.74689
G1 X163.811 Y124.971 E3.75313
G1 X163.408 Y125.748 E3.78224
G1 X162.969 Y126.563 E3.81303
G1 X162.618 Y127.196 E3.8371
G1 X162.267 Y127.763 E3.85928
G1 X161.55 Y128.847 E3.90251
G1 X161.157 Y129.424 E3.92573
G1 X160.68 Y130.056 E3.95206
G1 X159.972 Y130.942 E3.98979
G1 X159.482 Y131.539 E4.01547
G1 X159.11 Y131.956 E4.03406
G1 X158.172 Y132.936 E4.07918
G1 X157.659 Y133.456 E4.10347
G1 X157.254 Y133.838 E4.12199
G1 X156.189 Y134.766 E4.16897
G1 X155.638 Y135.233 E4.193
G1 X155.242 Y135.545 E4.20977
G1 X154.099 Y136.375 E4.25675
G1 X153.481 Y136.811 E4.2819
G1 X152.826 Y137.225 E4.30768
G1 X151.806 Y137.833 E4.34717
G1 X151.388 Y138.072 E4.36319
G1 X150.597 Y138.493 E4.39299
G1 X150.48 Y138.552 E4.39735
G1 X149.422 Y139.06 E4.43638
G1 X148.805 Y139.346 E4.459
G1 X148.133 Y139.621 E4.48315
G1 X146.985 Y140.051 E4.52392
G1 X146.345 Y140.281 E4.54654
G1 X146.165 Y140.34 E4.55284
G1 X145.299 Y140.594 E4.58286
G1 X144.377 Y140.848 E4.61467
G1 X143.785 Y141.002 E4.63501
G1 X143.605 Y141.043 E4.64115
G1 X142.678 Y141.228 E4.67259
G1 X141.747 Y141.396 E4.70406
G1 X141.162 Y141.493 E4.72378
G1 X140.981 Y141.518 E4.72986
G1 X140.013 Y141.621 E4.76224
G1 X139.18 Y141.696 E4.79005
G1 X138.481 Y141.749 E4.81337
G1 X138.291 Y141.758 E4.8197
G1 X137.433 Y141.772 E4.84824
G1 X136.47 Y141.772 E4.88027
G1 X135.828 Y141.763 E4.90162
G1 X135.637 Y141.754 E4.90798
G1 X134.692 Y141.684 E4.9395
G1 X133.812 Y141.605 E4.96889
G1 X133.152 Y141.536 E4.99096
G1 X132.969 Y141.511 E4.9971
G1 X132.085 Y141.366 E5.0269
G1 X131.117 Y141.19 E5.05962
G1 X130.538 Y141.077 E5.07924
G1 X130.348 Y141.034 E5.08572
G1 X129.452 Y140.801 E5.11651
G1 X128.548 Y140.551 E5.14771
G1 X127.818 Y140.338 E5.173
G1 X127.435 Y140.21 E5.18643
G1 X126.006 Y139.672 E5.23722
G1 X125.403 Y139.436 E5.25875
G1 X124.896 Y139.214 E5.27716
G1 X123.611 Y138.595 E5.3246
G1 X122.963 Y138.27 E5.34871
G1 X122.253 Y137.87 E5.37582
G1 X121.296 Y137.296 E5.41293
G1 X120.59 Y136.859 E5.44055
G1 X120.05 Y136.485 E5.4624
G1 X119.084 Y135.782 E5.50213
G1 X118.495 Y135.341 E5.52661
G1 X117.94 Y134.882 E5.55056
G1 X117.016 Y134.072 E5.59143
G1 X116.497 Y133.605 E5.61465
G1 X116.025 Y133.142 E5.63664
G1 X115.123 Y132.199 E5.68004
G1 X114.641 Y131.68 E5.7036
G1 X114.144 Y131.089 E5.72929
G1 X113.384 Y130.133 E5.76991
G1 X113.066 Y129.72 E5.78724
G1 X112.614 Y129.091 E5.813
G1 X112.543 Y128.987 E5.81719
G1 X111.811 Y127.879 E5.86136
G1 X111.492 Y127.379 E5.88109
G1 X111.146 Y126.78 E5.9041
G1 X110.538 Y125.649 E5.9468
G1 X110.199 Y124.995 E5.9713
G1 X109.94 Y124.436 E5.9918
G1 X109.411 Y123.195 E6.03666
G1 X109.12 Y122.481 E6.06231
G1 X108.88 Y121.793 E6.08654
G1 X108.526 Y120.701 E6.12473
G1 X108.31 Y120.001 E6.14909
G1 X108.148 Y119.375 E6.1706
G1 X107.857 Y118.097 E6.21419
G1 X107.724 Y117.472 E6.23544
G1 X107.691 Y117.289 E6.24163
G1 X107.551 Y116.369 E6.27258
G1 X107.432 Y115.489 E6.30212
G1 X107.353 Y114.84 E6.32386
G1 X107.336 Y114.65 E6.33021
G1 X107.276 Y113.669 E6.3629
G1 X107.24 Y112.833 E6.39073
G1 X107.219 Y112.167 E6.41289
G1 X107.218 Y111.972 E6.41937
G1 X107.247 Y111.001 E6.45168
G1 X107.285 Y110.167 E6.47945
G1 X107.325 Y109.486 E6.50214
G1 X107.341 Y109.296 E6.50848
G1 X107.451 Y108.379 E6.5392
G1 X107.575 Y107.462 E6.56998
G1 X107.686 Y106.734 E6.59447
G1 X107.794 Y106.175 E6.61341
G1 X108.093 Y104.87 E6.65794
G1 X108.253 Y104.219 E6.68023
G1 X108.302 Y104.045 E6.68625
G1 X108.572 Y103.164 E6.71689
G1 X108.865 Y102.266 E6.74831
G1 X109.082 Y101.629 E6.77069
G1 X109.335 Y100.986 E6.79368
G1 X109.839 Y99.809 E6.83626
G1 X110.101 Y99.221 E6.85767
G1 X110.183 Y99.051 E6.86395
G1 X110.622 Y98.204 E6.89568
G1 X111.024 Y97.458 E6.92386
G1 X111.384 Y96.81 E6.94852
G1 X111.752 Y96.217 E6.97173
G1 X112.72 Y94.752 E7.03013
G1 X114.237 Y92.387 E7.12359
G1 X115.636 Y90.063 E7.21381
G1 X116.982 Y87.676 E7.30495
G1 X118.255 Y85.264 E7.39566
G1 X119.466 Y82.803 E7.48689
G1 X120.604 Y80.313 E7.57795
G1 X121.668 Y77.799 E7.66874
G1 X122.665 Y75.246 E7.7599
G1 X123.596 Y72.649 E7.85166
G1 X124.438 Y70.068 E7.94196
G1 X125.221 Y67.421 E8.03377
G1 X125.915 Y64.803 E8.12385
G1 X126.541 Y62.143 E8.21474
G1 X127.097 Y59.436 E8.30665
G1 X127.572 Y56.736 E8.39784
G1 X127.969 Y54.037 E8.48857
G1 X128.292 Y51.303 E8.58014
G1 X128.535 Y48.597 E8.6705
G1 X128.704 Y45.846 E8.76217
G1 X128.792 Y43.134 E8.85242
G1 X128.81 Y41.278 E8.91415
G1 X128.81 Y36.524 E9.07227
G1 X128.821 Y35.839 E9.09506
G1 X128.869 Y35.335 E9.1119
G1 X128.996 Y34.846 E9.1287
G1 F2100 E8.3287
;MESH:coupole.STL
G0 F3600 X131.344 Y36.406
G0 X132.625 Y36.406
G0 X141.313 Y86.429
G0 X141.39 Y86.366
;TYPE:WALL-INNER
G1 F2100 E9.1287
G1 F1800 X142.666 Y86.633 E9.17206
G1 X142.86 Y86.683 E9.17872
G1 X143.405 Y86.834 E9.19753
G1 X144.103 Y87.026 E9.22161
G1 X144.604 Y87.164 E9.2389
G1 X145.045 Y87.287 E9.25412
G1 X145.113 Y87.311 E9.25652
G1 X145.711 Y87.536 E9.27777
G1 X146.376 Y87.785 E9.30139
G1 X146.796 Y87.943 E9.31631
G1 X147.206 Y88.097 E9.33088
G1 X147.842 Y88.403 E9.35436
G1 X148.459 Y88.7 E9.37713
G1 X148.573 Y88.755 E9.38134
G1 X148.957 Y88.94 E9.39552
G1 X149.308 Y89.109 E9.40848
G1 X149.388 Y89.154 E9.41153
G1 X149.991 Y89.515 E9.4349
G1 X150.56 Y89.855 E9.45695
G1 X150.67 Y89.921 E9.46122
G1 X151.001 Y90.119 E9.47404
G1 X151.319 Y90.31 E9.48638
G1 X151.388 Y90.358 E9.48918
G1 X151.938 Y90.758 E9.5118
G1 X152.549 Y91.202 E9.53692
G1 X152.652 Y91.277 E9.54116
G1 X152.93 Y91.479 E9.55259
G1 X153.21 Y91.683 E9.56411
G1 X153.824 Y92.22 E9.59124
G1 X154.491 Y92.803 E9.6207
G1 X154.749 Y93.028 E9.63209
G1 X154.976 Y93.227 E9.64213
G1 X155.577 Y93.856 E9.67106
G1 X156.19 Y94.497 E9.70056
G1 X156.388 Y94.704 E9.71009
G1 X156.579 Y94.904 E9.71929
G1 X157.112 Y95.574 E9.74777
G1 X157.647 Y96.246 E9.77633
G1 X157.727 Y96.346 E9.78059
G1 X157.877 Y96.534 E9.78859
G1 X158.031 Y96.728 E9.79683
G1 X158.074 Y96.791 E9.79937
G1 X158.528 Y97.48 E9.82681
G1 X159.013 Y98.216 E9.85613
G1 X159.083 Y98.322 E9.86035
G1 X159.205 Y98.507 E9.86772
G1 X159.314 Y98.671 E9.87427
G1 X159.355 Y98.743 E9.87703
G1 X159.812 Y99.593 E9.90913
G1 X160.251 Y100.411 E9.94
G1 X160.42 Y100.725 E9.95187
G1 X161.223 Y102.606 E10.01989
G1 X161.337 Y102.873 E10.02955
G1 X161.361 Y102.941 E10.03194
G1 X161.989 Y104.879 E10.0997
G1 X162.061 Y105.101 E10.10746
G1 X162.515 Y107.094 E10.17545
G1 X162.544 Y107.219 E10.17972
G1 X162.578 Y107.367 E10.18477
G1 X162.861 Y109.468 E10.25528
G1 X162.879 Y109.594 E10.25951
G1 X162.888 Y109.657 E10.26163
G1 X162.987 Y111.863 E10.33508
G1 X162.994 Y111.998 E10.33957
G1 X162.993 Y112.028 E10.34057
G1 X162.892 Y114.261 E10.41492
G1 X162.888 Y114.345 E10.41771
G1 X162.883 Y114.377 E10.41879
G1 X162.878 Y114.422 E10.4203
G1 X162.579 Y116.637 E10.49463
G1 X162.578 Y116.643 E10.49484
G1 X162.56 Y116.718 E10.4974
G1 X162.543 Y116.796 E10.50006
G1 X162.055 Y118.925 E10.5727
G1 X161.99 Y119.127 E10.57976
G1 X161.335 Y121.143 E10.65027
G1 X161.225 Y121.401 E10.65959
G1 X160.414 Y123.293 E10.72806
G1 X160.311 Y123.486 E10.73534
G1 X160.251 Y123.597 E10.73953
G1 X159.318 Y125.331 E10.80502
G1 X159.149 Y125.587 E10.81523
G1 X159.079 Y125.694 E10.81948
G1 X158.026 Y127.286 E10.88296
G1 X157.98 Y127.346 E10.88548
G1 X157.799 Y127.573 E10.89514
G1 X157.72 Y127.672 E10.89935
G1 X157.192 Y128.334 E10.92751
G1 X156.574 Y129.109 E10.96048
G1 X156.377 Y129.315 E10.96996
G1 X156.191 Y129.51 E10.97892
G1 X155.596 Y130.132 E11.00755
G1 X154.97 Y130.786 E11.03766
G1 X154.746 Y130.982 E11.04756
G1 X154.492 Y131.203 E11.05876
G1 X153.799 Y131.809 E11.08938
G1 X153.203 Y132.33 E11.11571
G1 X152.951 Y132.513 E11.12607
G1 X152.745 Y132.662 E11.13452
G1 X152.642 Y132.737 E11.13876
G1 X151.946 Y133.242 E11.16736
G1 X151.31 Y133.703 E11.19349
G1 X151.257 Y133.736 E11.19557
G1 X151.011 Y133.883 E11.2051
G1 X150.772 Y134.025 E11.21434
G1 X150.663 Y134.09 E11.21856
G1 X149.96 Y134.508 E11.24577
G1 X149.303 Y134.9 E11.27121
G1 X149.251 Y134.927 E11.27316
G1 X148.928 Y135.082 E11.28508
G1 X148.57 Y135.254 E11.29829
G1 X147.894 Y135.579 E11.32323
G1 X147.201 Y135.912 E11.34881
G1 X146.786 Y136.068 E11.36355
G1 X146.377 Y136.221 E11.37808
G1 X145.713 Y136.47 E11.40166
G1 X145.037 Y136.724 E11.42568
G1 X144.597 Y136.846 E11.44087
G1 X144.105 Y136.981 E11.45784
G1 X143.384 Y137.179 E11.48271
G1 X142.785 Y137.345 E11.50338
G1 X142.323 Y137.429 E11.519
G1 X141.89 Y137.507 E11.53363
G1 X141.764 Y137.53 E11.53789
G1 X141.101 Y137.65 E11.5603
G1 X140.475 Y137.764 E11.58146
G1 X139.98 Y137.808 E11.59799
G1 X139.517 Y137.849 E11.61345
G1 X139.39 Y137.861 E11.6177
G1 X138.763 Y137.918 E11.63864
G1 X138.171 Y137.972 E11.65841
G1 X137.607 Y137.972 E11.67717
G1 X137.123 Y137.972 E11.69326
G1 X136.994 Y137.972 E11.69755
G1 X136.425 Y137.972 E11.71648
G1 X135.829 Y137.972 E11.7363
G1 X135.218 Y137.917 E11.75671
G1 X134.727 Y137.874 E11.7731
G1 X134.601 Y137.862 E11.77731
G1 X134.075 Y137.815 E11.79487
G1 X133.525 Y137.764 E11.81325
G1 X132.902 Y137.651 E11.83431
G1 X132.353 Y137.552 E11.85286
G1 X132.229 Y137.529 E11.85705
G1 X131.692 Y137.432 E11.8752
G1 X131.215 Y137.345 E11.89133
G1 X130.594 Y137.173 E11.91276
G1 X129.896 Y136.981 E11.93684
G1 X129.402 Y136.845 E11.95388
G1 X128.958 Y136.722 E11.96921
G1 X128.887 Y136.697 E11.97171
G1 X128.282 Y136.469 E11.99321
G1 X127.623 Y136.222 E12.01662
G1 X127.19 Y136.059 E12.03201
G1 X126.783 Y135.905 E12.04648
G1 X126.714 Y135.873 E12.04901
G1 X126.137 Y135.594 E12.07033
G1 X125.541 Y135.307 E12.09233
G1 X125.427 Y135.252 E12.09654
G1 X125.029 Y135.061 E12.11122
G1 X124.68 Y134.892 E12.12412
G1 X124.612 Y134.853 E12.12673
G1 X124.024 Y134.501 E12.14952
G1 X123.44 Y134.152 E12.17215
G1 X123.33 Y134.086 E12.17642
G1 X123 Y133.888 E12.18922
G1 X122.679 Y133.696 E12.20166
G1 X122.609 Y133.647 E12.2045
G1 X122.054 Y133.243 E12.22733
G1 X121.451 Y132.805 E12.25212
G1 X121.348 Y132.73 E12.25636
G1 X121.067 Y132.526 E12.26791
G1 X120.789 Y132.323 E12.27936
G1 X120.173 Y131.784 E12.30658
G1 X119.509 Y131.204 E12.3359
G1 X119.248 Y130.976 E12.34743
G1 X119.018 Y130.774 E12.35761
G1 X118.439 Y130.168 E12.38549
G1 X117.811 Y129.51 E12.41574
G1 X117.604 Y129.294 E12.42569
G1 X117.417 Y129.098 E12.4347
G1 X117.37 Y129.041 E12.43716
G1 X116.847 Y128.384 E12.46509
G1 X116.352 Y127.761 E12.49155
G1 X116.273 Y127.662 E12.49577
G1 X116.132 Y127.485 E12.50329
G1 X115.969 Y127.28 E12.512
G1 X115.921 Y127.21 E12.51483
G1 X115.417 Y126.445 E12.5453
G1 X114.986 Y125.792 E12.57132
G1 X114.916 Y125.686 E12.57555
G1 X114.806 Y125.518 E12.58222
G1 X114.686 Y125.337 E12.58945
G1 X114.644 Y125.263 E12.59228
G1 X114.164 Y124.369 E12.62603
G1 X113.749 Y123.595 E12.65524
G1 X113.584 Y123.289 E12.6668
G1 X113.547 Y123.206 E12.66982
G1 X112.777 Y121.401 E12.73509
G1 X112.661 Y121.129 E12.74493
G1 X112.635 Y121.054 E12.74757
G1 X112.012 Y119.128 E12.81489
G1 X111.939 Y118.904 E12.82273
G1 X111.485 Y116.913 E12.89065
G1 X111.456 Y116.788 E12.89492
G1 X111.422 Y116.64 E12.89997
G1 X111.139 Y114.539 E12.97048
G1 X111.122 Y114.413 E12.97471
G1 X111.112 Y114.345 E12.97699
G1 X111.013 Y112.145 E13.05024
G1 X111.007 Y112.017 E13.0545
G1 X111.006 Y111.998 E13.05514
G1 X111.112 Y109.657 E13.13308
G1 X111.117 Y109.617 E13.13442
G1 X111.121 Y109.585 E13.13549
G1 X111.421 Y107.37 E13.20983
G1 X111.423 Y107.359 E13.21021
G1 X111.44 Y107.288 E13.21263
G1 X111.457 Y107.211 E13.21526
G1 X111.946 Y105.079 E13.28801
G1 X112.01 Y104.879 E13.29499
G1 X112.665 Y102.864 E13.36546
G1 X112.775 Y102.606 E13.37479
G1 X113.582 Y100.723 E13.44293
G1 X113.69 Y100.521 E13.45055
G1 X113.75 Y100.41 E13.45475
G1 X114.687 Y98.669 E13.52051
G1 X114.851 Y98.421 E13.53039
G1 X114.921 Y98.315 E13.53462
G1 X115.974 Y96.722 E13.59813
G1 X116.02 Y96.662 E13.60065
G1 X116.2 Y96.435 E13.61028
G1 X116.28 Y96.335 E13.61454
G1 X116.808 Y95.673 E13.64271
G1 X117.432 Y94.891 E13.67598
G1 X117.625 Y94.689 E13.68527
G1 X117.809 Y94.497 E13.69412
G1 X118.404 Y93.875 E13.72275
G1 X119.03 Y93.221 E13.75286
G1 X119.254 Y93.025 E13.76276
G1 X119.508 Y92.804 E13.77396
G1 X120.201 Y92.198 E13.80457
G1 X120.797 Y91.677 E13.8309
G1 X121.049 Y91.494 E13.84126
G1 X121.255 Y91.345 E13.84972
G1 X121.358 Y91.27 E13.85396
G1 X122.054 Y90.765 E13.88256
G1 X122.69 Y90.304 E13.90868
G1 X122.743 Y90.271 E13.91076
G1 X122.989 Y90.124 E13.92029
G1 X123.228 Y89.982 E13.92954
G1 X123.337 Y89.917 E13.93376
G1 X124.017 Y89.512 E13.96008
G1 X124.697 Y89.106 E13.98642
G1 X125.067 Y88.928 E14.00008
G1 X125.429 Y88.754 E14.01344
G1 X126.104 Y88.43 E14.03834
G1 X126.799 Y88.095 E14.064
