;FLAVOR:UltiGCode
;TIME:1160
;MATERIAL:2419
;MATERIAL2:0
;NOZZLE_DIAMETER:0.6
;MINX:43.789
;MINY:95.771
;MINZ:0.4
;MAXX:156.286
;MAXY:134.581
;MAXZ:10.9
;Generated with Cura_SteamEngine master
M82 ;absolute extrusion mode
G0 F3000 Y50 ;avoid prime blob
G92 E0
G92 E0
G10
;LAYER_COUNT:71
;LAYER:0
M107
G0 F3927.3 X133.553 Y109.741 Z0.4
;TYPE:SKIRT
G11
G1 F1800 X134.147 Y109.034 E0.19576
G1 X134.507 Y108.651 E0.3072
G1 X135.22 Y107.978 E0.51505
G1 X135.619 Y107.644 E0.62537
G1 X136.371 Y107.084 E0.82414
G1 X136.808 Y106.796 E0.93509
G1 X137.655 Y106.307 E1.14243
G1 X138.123 Y106.073 E1.25336
G1 X138.98 Y105.704 E1.45117
G1 X139.473 Y105.524 E1.56243
G1 X140.387 Y105.25 E1.76472
G1 X140.895 Y105.129 E1.87543
G1 X141.843 Y104.961 E2.07954
G1 X142.364 Y104.9 E2.19075
G1 X143.319 Y104.844 E2.39355
G1 X143.841 Y104.844 E2.50422
G1 X144.796 Y104.9 E2.70702
G1 X145.317 Y104.961 E2.81823
G1 X146.265 Y105.129 E3.02234
G1 X146.773 Y105.25 E3.13305
G1 X147.687 Y105.524 E3.33534
G1 X148.18 Y105.704 E3.4466
G1 X149.037 Y106.073 E3.64441
G1 X149.503 Y106.306 E3.75486
G1 X150.346 Y106.792 E3.96115
G1 X150.785 Y107.081 E4.07258
G1 X151.541 Y107.644 E4.27241
G1 X151.94 Y107.978 E4.38272
G1 X152.653 Y108.651 E4.59058
G1 X153.013 Y109.034 E4.70201
G1 X153.61 Y109.746 E4.899
G1 X153.928 Y110.172 E5.01169
G1 X154.471 Y110.998 E5.22126
G1 X154.732 Y111.453 E5.33246
G1 X155.162 Y112.318 E5.53725
G1 X155.377 Y112.822 E5.65341
G1 X155.712 Y113.761 E5.86477
G1 X155.857 Y114.262 E5.97534
G1 X156.068 Y115.191 E6.1773
G1 X156.157 Y115.723 E6.29166
G1 X156.262 Y116.713 E6.50271
G1 X156.286 Y117.252 E6.61709
G1 X156.274 Y118.19 E6.81597
G1 X156.239 Y118.691 E6.92244
G1 X156.122 Y119.613 E7.11947
G1 X156.03 Y120.11 E7.22662
G1 X155.821 Y120.973 E7.41487
G1 X155.676 Y121.457 E7.52198
G1 X155.339 Y122.377 E7.72969
G1 X155.134 Y122.848 E7.83859
G1 X154.72 Y123.671 E8.0339
G1 X154.459 Y124.124 E8.14474
G1 X153.921 Y124.942 E8.3523
G1 X153.607 Y125.362 E8.46347
G1 X153.013 Y126.069 E8.65923
G1 X152.653 Y126.452 E8.77067
G1 X151.94 Y127.125 E8.97853
G1 X151.541 Y127.459 E9.08884
G1 X150.789 Y128.019 E9.28761
G1 X150.352 Y128.307 E9.39856
G1 X149.505 Y128.796 E9.60591
G1 X149.037 Y129.03 E9.71683
G1 X148.18 Y129.399 E9.91464
G1 X147.687 Y129.579 E10.02591
G1 X146.773 Y129.853 E10.22819
G1 X146.265 Y129.974 E10.3389
G1 X145.317 Y130.142 E10.54301
G1 X144.796 Y130.203 E10.65422
G1 X143.841 Y130.259 E10.85702
G1 X143.319 Y130.259 E10.96769
G1 X142.364 Y130.203 E11.1705
G1 X141.843 Y130.142 E11.2817
G1 X140.895 Y129.974 E11.48581
G1 X140.387 Y129.853 E11.59652
G1 X139.473 Y129.579 E11.79881
G1 X138.98 Y129.399 E11.91007
G1 X138.123 Y129.03 E12.10788
G1 X137.655 Y128.796 E12.21881
G1 X136.808 Y128.307 E12.42615
G1 X136.371 Y128.019 E12.5371
G1 X135.619 Y127.459 E12.73588
G1 X135.22 Y127.125 E12.84619
G1 X134.507 Y126.452 E13.05405
G1 X134.147 Y126.069 E13.16548
G1 X133.546 Y125.352 E13.36382
G1 X133.227 Y124.924 E13.47699
G1 X132.688 Y124.103 E13.6852
G1 X132.427 Y123.648 E13.7964
G1 X131.997 Y122.783 E14.00119
G1 X131.782 Y122.279 E14.11735
G1 X131.446 Y121.336 E14.32958
G1 X131.301 Y120.834 E14.44035
G1 X131.089 Y119.897 E14.64402
G1 X131.001 Y119.366 E14.75813
G1 X130.898 Y118.39 E14.96619
G1 X130.874 Y117.853 E15.08014
G1 X130.886 Y116.913 E15.27944
G1 X130.921 Y116.412 E15.38591
G1 X131.038 Y115.49 E15.58294
G1 X131.13 Y114.993 E15.6901
G1 X131.339 Y114.13 E15.87834
G1 X131.484 Y113.646 E15.98546
G1 X131.821 Y112.726 E16.19317
G1 X132.026 Y112.255 E16.30207
G1 X132.44 Y111.432 E16.49738
G1 X132.701 Y110.979 E16.60821
G1 X133.239 Y110.161 E16.81577
G1 X133.553 Y109.741 E16.92695
G0 F3927.3 X133.978 Y110.058
G1 F1800 X134.533 Y109.397 E17.10992
G1 X134.893 Y109.014 E17.22136
G1 X135.56 Y108.384 E17.41587
G1 X135.959 Y108.05 E17.52618
G1 X136.663 Y107.526 E17.71223
G1 X137.1 Y107.238 E17.82319
G1 X137.892 Y106.781 E18.01704
G1 X138.36 Y106.547 E18.12796
G1 X139.161 Y106.202 E18.31286
G1 X139.654 Y106.022 E18.42412
G1 X140.509 Y105.765 E18.61339
G1 X141.017 Y105.644 E18.7241
G1 X141.904 Y105.487 E18.91507
G1 X142.425 Y105.426 E19.02627
G1 X143.319 Y105.374 E19.21612
G1 X143.841 Y105.374 E19.32679
G1 X144.735 Y105.426 E19.51664
G1 X145.256 Y105.487 E19.62784
G1 X146.143 Y105.644 E19.81881
G1 X146.651 Y105.765 E19.92952
G1 X147.506 Y106.022 E20.11879
G1 X147.999 Y106.202 E20.23005
G1 X148.8 Y106.547 E20.41495
G1 X149.266 Y106.78 E20.5254
G1 X150.055 Y107.235 E20.71849
G1 X150.494 Y107.524 E20.82991
G1 X151.201 Y108.05 E21.01673
G1 X151.6 Y108.384 E21.12704
G1 X152.267 Y109.014 E21.32155
G1 X152.627 Y109.397 E21.43298
G1 X153.185 Y110.063 E21.61718
G1 X153.503 Y110.489 E21.72988
G1 X154.011 Y111.262 E21.92598
G1 X154.272 Y111.717 E22.03718
G1 X154.675 Y112.526 E22.22879
G1 X154.89 Y113.03 E22.34495
G1 X155.203 Y113.908 E22.54256
G1 X155.348 Y114.409 E22.65314
G1 X155.546 Y115.278 E22.84209
G1 X155.635 Y115.81 E22.95644
G1 X155.732 Y116.736 E23.15382
G1 X155.756 Y117.275 E23.2682
G1 X155.745 Y118.153 E23.45435
G1 X155.71 Y118.654 E23.56083
G1 X155.601 Y119.517 E23.74523
G1 X155.509 Y120.014 E23.85239
G1 X155.314 Y120.82 E24.02819
G1 X155.169 Y121.304 E24.1353
G1 X154.853 Y122.166 E24.32994
G1 X154.648 Y122.637 E24.43884
G1 X154.261 Y123.407 E24.62154
G1 X154 Y123.86 E24.73237
G1 X153.496 Y124.625 E24.92659
G1 X153.182 Y125.045 E25.03776
G1 X152.627 Y125.706 E25.22074
G1 X152.267 Y126.089 E25.33217
G1 X151.6 Y126.719 E25.52668
G1 X151.201 Y127.053 E25.63699
G1 X150.497 Y127.577 E25.82305
G1 X150.06 Y127.865 E25.934
G1 X149.268 Y128.322 E26.12785
G1 X148.8 Y128.556 E26.23878
G1 X147.999 Y128.901 E26.42367
G1 X147.506 Y129.081 E26.53494
G1 X146.651 Y129.338 E26.72421
G1 X146.143 Y129.459 E26.83492
G1 X145.256 Y129.616 E27.02588
G1 X144.735 Y129.677 E27.13709
G1 X143.841 Y129.729 E27.32694
G1 X143.319 Y129.729 E27.4376
G1 X142.425 Y129.677 E27.62745
G1 X141.904 Y129.616 E27.73866
G1 X141.017 Y129.459 E27.92962
G1 X140.509 Y129.338 E28.04033
G1 X139.654 Y129.081 E28.2296
G1 X139.161 Y128.901 E28.34087
G1 X138.36 Y128.556 E28.52576
G1 X137.892 Y128.322 E28.63669
G1 X137.1 Y127.865 E28.83054
G1 X136.663 Y127.577 E28.94149
G1 X135.959 Y127.053 E29.12755
G1 X135.56 Y126.719 E29.23786
G1 X134.893 Y126.089 E29.43237
G1 X134.533 Y125.706 E29.5438
G1 X133.971 Y125.036 E29.72919
G1 X133.652 Y124.608 E29.84236
G1 X133.148 Y123.839 E30.03728
G1 X132.887 Y123.384 E30.14848
G1 X132.484 Y122.575 E30.34009
G1 X132.269 Y122.071 E30.45626
G1 X131.955 Y121.189 E30.65474
G1 X131.81 Y120.687 E30.76551
G1 X131.611 Y119.81 E30.95616
G1 X131.523 Y119.279 E31.07027
G1 X131.428 Y118.366 E31.26487
G1 X131.404 Y117.829 E31.37883
G1 X131.415 Y116.95 E31.56519
G1 X131.45 Y116.449 E31.67166
G1 X131.559 Y115.586 E31.85607
G1 X131.651 Y115.089 E31.96323
G1 X131.846 Y114.283 E32.13903
G1 X131.991 Y113.799 E32.24614
G1 X132.307 Y112.937 E32.44078
G1 X132.512 Y112.466 E32.54968
G1 X132.899 Y111.696 E32.73238
G1 X133.16 Y111.243 E32.84321
G1 X133.664 Y110.478 E33.03743
G1 X133.978 Y110.058 E33.1486
G0 F3927.3 X134.402 Y110.376
G1 F1800 X134.92 Y109.76 E33.31923
G1 X135.28 Y109.377 E33.43066
G1 X135.9 Y108.791 E33.61152
G1 X136.299 Y108.457 E33.72183
G1 X136.955 Y107.969 E33.89516
G1 X137.392 Y107.681 E34.00612
G1 X138.129 Y107.255 E34.18659
G1 X138.597 Y107.021 E34.29751
G1 X139.343 Y106.7 E34.46968
G1 X139.836 Y106.52 E34.58095
G1 X140.632 Y106.281 E34.75714
G1 X141.14 Y106.16 E34.86785
G1 X141.966 Y106.014 E35.04568
G1 X142.487 Y105.953 E35.15688
G1 X143.319 Y105.904 E35.33357
G1 X143.841 Y105.904 E35.44424
G1 X144.673 Y105.953 E35.62093
G1 X145.194 Y106.014 E35.73213
G1 X146.02 Y106.16 E35.90996
G1 X146.528 Y106.281 E36.02067
G1 X147.324 Y106.52 E36.19686
G1 X147.817 Y106.7 E36.30813
G1 X148.563 Y107.021 E36.4803
G1 X149.029 Y107.254 E36.59075
G1 X149.763 Y107.678 E36.77046
G1 X150.202 Y107.967 E36.88188
G1 X150.861 Y108.457 E37.05598
G1 X151.26 Y108.791 E37.16629
G1 X151.88 Y109.377 E37.34715
G1 X152.24 Y109.76 E37.45858
G1 X152.761 Y110.38 E37.63027
G1 X153.079 Y110.806 E37.74297
G1 X153.551 Y111.526 E37.92548
G1 X153.812 Y111.981 E38.03669
G1 X154.187 Y112.734 E38.21502
G1 X154.402 Y113.238 E38.33119
G1 X154.694 Y114.056 E38.51532
G1 X154.839 Y114.557 E38.62589
G1 X155.023 Y115.365 E38.80157
G1 X155.112 Y115.897 E38.91593
G1 X155.203 Y116.76 E39.0999
G1 X155.227 Y117.299 E39.21428
G1 X155.217 Y118.116 E39.38749
G1 X155.182 Y118.617 E39.49397
G1 X155.079 Y119.42 E39.6656
G1 X154.987 Y119.917 E39.77275
G1 X154.806 Y120.668 E39.93652
G1 X154.661 Y121.152 E40.04363
G1 X154.368 Y121.954 E40.22465
G1 X154.163 Y122.425 E40.33355
G1 X153.802 Y123.142 E40.50373
G1 X153.541 Y123.595 E40.61457
G1 X153.072 Y124.307 E40.79532
G1 X152.758 Y124.727 E40.90649
G1 X152.24 Y125.343 E41.07712
G1 X151.88 Y125.726 E41.18855
G1 X151.26 Y126.312 E41.36941
G1 X150.861 Y126.646 E41.47972
G1 X150.205 Y127.134 E41.65306
G1 X149.768 Y127.422 E41.76401
G1 X149.031 Y127.848 E41.94448
G1 X148.563 Y128.082 E42.0554
G1 X147.817 Y128.403 E42.22758
G1 X147.324 Y128.583 E42.33884
G1 X146.528 Y128.822 E42.51503
G1 X146.02 Y128.943 E42.62574
G1 X145.194 Y129.089 E42.80357
G1 X144.673 Y129.15 E42.91478
G1 X143.841 Y129.199 E43.09147
G1 X143.319 Y129.199 E43.20213
G1 X142.487 Y129.15 E43.37882
G1 X141.966 Y129.089 E43.49003
G1 X141.14 Y128.943 E43.66785
G1 X140.632 Y128.822 E43.77856
G1 X139.836 Y128.583 E43.95476
G1 X139.343 Y128.403 E44.06602
G1 X138.597 Y128.082 E44.23819
G1 X138.129 Y127.848 E44.34912
G1 X137.392 Y127.422 E44.52959
G1 X136.955 Y127.134 E44.64054
G1 X136.299 Y126.646 E44.81387
G1 X135.9 Y126.312 E44.92419
G1 X135.28 Y125.726 E45.10504
G1 X134.92 Y125.343 E45.21648
G1 X134.396 Y124.719 E45.38922
G1 X134.077 Y124.291 E45.50239
G1 X133.608 Y123.575 E45.68385
G1 X133.347 Y123.12 E45.79505
G1 X132.972 Y122.367 E45.97339
G1 X132.757 Y121.863 E46.08955
G1 X132.464 Y121.042 E46.27435
G1 X132.319 Y120.54 E46.38513
G1 X132.134 Y119.724 E46.56251
G1 X132.046 Y119.193 E46.67662
G1 X131.957 Y118.342 E46.85801
G1 X131.933 Y117.805 E46.97197
G1 X131.943 Y116.987 E47.1454
G1 X131.978 Y116.486 E47.25187
G1 X132.081 Y115.683 E47.4235
G1 X132.173 Y115.186 E47.53066
G1 X132.354 Y114.435 E47.69443
G1 X132.499 Y113.951 E47.80154
G1 X132.792 Y113.149 E47.98256
G1 X132.997 Y112.678 E48.09146
G1 X133.358 Y111.961 E48.26164
G1 X133.619 Y111.508 E48.37248
G1 X134.088 Y110.796 E48.55322
G1 X134.402 Y110.376 E48.6644
G0 F3927.3 X134.827 Y110.693
G1 F1800 X135.306 Y110.123 E48.82224
G1 X135.666 Y109.74 E48.93367
G1 X136.241 Y109.197 E49.10134
G1 X136.64 Y108.863 E49.21165
G1 X137.246 Y108.411 E49.37192
G1 X137.683 Y108.123 E49.48288
G1 X138.366 Y107.729 E49.65004
G1 X138.834 Y107.495 E49.76096
G1 X139.525 Y107.198 E49.92041
G1 X140.018 Y107.018 E50.03168
G1 X140.755 Y106.796 E50.19486
G1 X141.263 Y106.675 E50.30557
G1 X142.028 Y106.54 E50.47025
G1 X142.549 Y106.479 E50.58146
G1 X143.319 Y106.434 E50.74498
G1 X143.841 Y106.434 E50.85564
G1 X144.611 Y106.479 E51.01916
G1 X145.132 Y106.54 E51.13037
G1 X145.897 Y106.675 E51.29505
G1 X146.405 Y106.796 E51.40576
G1 X147.142 Y107.018 E51.56894
G1 X147.635 Y107.198 E51.6802
G1 X148.326 Y107.495 E51.83965
G1 X148.792 Y107.728 E51.95011
G1 X149.472 Y108.12 E52.11651
G1 X149.911 Y108.409 E52.22793
G1 X150.52 Y108.863 E52.38897
G1 X150.919 Y109.197 E52.49928
G1 X151.494 Y109.74 E52.66694
G1 X151.854 Y110.123 E52.77838
G1 X152.336 Y110.697 E52.93728
G1 X152.654 Y111.123 E53.04998
G1 X153.092 Y111.79 E53.21914
G1 X153.353 Y112.245 E53.33035
G1 X153.7 Y112.942 E53.49541
G1 X153.915 Y113.446 E53.61157
G1 X154.185 Y114.203 E53.78196
G1 X154.33 Y114.704 E53.89253
G1 X154.5 Y115.453 E54.05536
G1 X154.589 Y115.985 E54.16971
G1 X154.673 Y116.783 E54.33982
G1 X154.697 Y117.322 E54.4542
G1 X154.688 Y118.079 E54.6147
G1 X154.653 Y118.58 E54.72117
G1 X154.558 Y119.324 E54.88018
G1 X154.466 Y119.821 E54.98733
G1 X154.298 Y120.516 E55.13891
G1 X154.153 Y121 E55.24603
G1 X153.882 Y121.743 E55.41369
G1 X153.677 Y122.214 E55.52259
G1 X153.342 Y122.877 E55.68007
G1 X153.081 Y123.33 E55.79091
G1 X152.647 Y123.99 E55.95837
G1 X152.333 Y124.41 E56.06954
G1 X151.854 Y124.98 E56.22739
G1 X151.494 Y125.363 E56.33882
G1 X150.919 Y125.906 E56.50648
G1 X150.52 Y126.24 E56.6168
G1 X149.914 Y126.692 E56.77707
G1 X149.477 Y126.98 E56.88802
G1 X148.794 Y127.374 E57.05518
G1 X148.326 Y127.608 E57.16611
G1 X147.635 Y127.905 E57.32556
G1 X147.142 Y128.085 E57.43683
G1 X146.405 Y128.307 E57.6
G1 X145.897 Y128.428 E57.71071
G1 X145.132 Y128.563 E57.8754
G1 X144.611 Y128.624 E57.98661
G1 X143.841 Y128.669 E58.15012
G1 X143.319 Y128.669 E58.26079
G1 X142.549 Y128.624 E58.42431
G1 X142.028 Y128.563 E58.53551
G1 X141.263 Y128.428 E58.7002
G1 X140.755 Y128.307 E58.81091
G1 X140.018 Y128.085 E58.97409
G1 X139.525 Y127.905 E59.08535
G1 X138.834 Y127.608 E59.2448
G1 X138.366 Y127.374 E59.35573
G1 X137.683 Y126.98 E59.52289
G1 X137.246 Y126.692 E59.63384
G1 X136.64 Y126.24 E59.79411
G1 X136.241 Y125.906 E59.90443
G1 X135.666 Y125.363 E60.07209
G1 X135.306 Y124.98 E60.18353
G1 X134.821 Y124.402 E60.34349
G1 X134.502 Y123.974 E60.45665
G1 X134.067 Y123.311 E60.62476
G1 X133.806 Y122.856 E60.73596
G1 X133.459 Y122.159 E60.90103
G1 X133.244 Y121.655 E61.01719
G1 X132.973 Y120.894 E61.18845
G1 X132.828 Y120.392 E61.29922
G1 X132.657 Y119.637 E61.46334
G1 X132.569 Y119.106 E61.57744
G1 X132.487 Y118.319 E61.74519
G1 X132.463 Y117.782 E61.85915
G1 X132.472 Y117.024 E62.01985
G1 X132.507 Y116.523 E62.12633
G1 X132.602 Y115.779 E62.28533
G1 X132.694 Y115.282 E62.39249
G1 X132.862 Y114.587 E62.54407
G1 X133.007 Y114.103 E62.65119
G1 X133.278 Y113.36 E62.81885
G1 X133.483 Y112.889 E62.92775
G1 X133.818 Y112.226 E63.08523
G1 X134.079 Y111.773 E63.19607
G1 X134.513 Y111.113 E63.36353
G1 X134.827 Y110.693 E63.4747
G0 F3927.3 X135.251 Y111.01
G1 F1800 X135.692 Y110.486 E63.61989
G1 X136.052 Y110.103 E63.73133
G1 X136.581 Y109.603 E63.88564
G1 X136.98 Y109.269 E63.99596
G1 X137.538 Y108.854 E64.14338
G1 X137.975 Y108.566 E64.25434
G1 X138.603 Y108.203 E64.40811
G1 X139.071 Y107.969 E64.51904
G1 X139.707 Y107.696 E64.66577
G1 X140.2 Y107.516 E64.77703
G1 X140.878 Y107.312 E64.92714
G1 X141.386 Y107.191 E65.03784
G1 X142.089 Y107.066 E65.18922
G1 X142.61 Y107.005 E65.30042
G1 X143.319 Y106.964 E65.45098
G1 X143.841 Y106.964 E65.56165
G1 X144.55 Y107.005 E65.71221
G1 X145.071 Y107.066 E65.82341
G1 X145.774 Y107.191 E65.97479
G1 X146.282 Y107.312 E66.0855
G1 X146.96 Y107.516 E66.2356
G1 X147.453 Y107.696 E66.34686
G1 X148.089 Y107.969 E66.49359
G1 X148.555 Y108.202 E66.60404
G1 X149.18 Y108.563 E66.75706
G1 X149.619 Y108.852 E66.86848
G1 X150.18 Y109.269 E67.01667
G1 X150.579 Y109.603 E67.12698
G1 X151.108 Y110.103 E67.2813
G1 X151.468 Y110.486 E67.39273
G1 X151.911 Y111.014 E67.53885
G1 X152.229 Y111.44 E67.65155
G1 X152.632 Y112.053 E67.80707
G1 X152.893 Y112.508 E67.91828
G1 X153.212 Y113.149 E68.07007
G1 X153.427 Y113.653 E68.18623
G1 X153.676 Y114.351 E68.34334
G1 X153.821 Y114.852 E68.45391
G1 X153.977 Y115.54 E68.60347
G1 X154.066 Y116.072 E68.71782
G1 X154.144 Y116.807 E68.87452
G1 X154.168 Y117.346 E68.9889
G1 X154.159 Y118.042 E69.13646
G1 X154.124 Y118.543 E69.24293
G1 X154.037 Y119.227 E69.38911
G1 X153.945 Y119.724 E69.49626
G1 X153.791 Y120.364 E69.63581
G1 X153.646 Y120.848 E69.74293
G1 X153.396 Y121.531 E69.89712
G1 X153.191 Y122.002 E70.00602
G1 X152.883 Y122.613 E70.15108
G1 X152.622 Y123.066 E70.26191
G1 X152.223 Y123.673 E70.41591
G1 X151.909 Y124.093 E70.52708
G1 X151.468 Y124.617 E70.67228
G1 X151.108 Y125 E70.78371
G1 X150.579 Y125.5 E70.93803
G1 X150.18 Y125.834 E71.04834
G1 X149.622 Y126.249 E71.19576
G1 X149.185 Y126.537 E71.30672
G1 X148.557 Y126.9 E71.4605
G1 X148.089 Y127.134 E71.57142
G1 X147.453 Y127.407 E71.71815
G1 X146.96 Y127.587 E71.82942
G1 X146.282 Y127.791 E71.97952
G1 X145.774 Y127.912 E72.09023
G1 X145.071 Y128.037 E72.2416
G1 X144.55 Y128.098 E72.35281
G1 X143.841 Y128.139 E72.50337
G1 X143.319 Y128.139 E72.61403
G1 X142.61 Y128.098 E72.76459
G1 X142.089 Y128.037 E72.87579
G1 X141.386 Y127.912 E73.02717
G1 X140.878 Y127.791 E73.13788
G1 X140.2 Y127.587 E73.28798
G1 X139.707 Y127.407 E73.39924
